svg/mono/discover.svg

<?xml version="1.0" encoding="UTF-8" standalone="no"?>
<svg width="750px" height="471px" viewBox="0 0 750 471" version="1.1" xmlns="http://www.w3.org/2000/svg" xmlns:xlink="http://www.w3.org/1999/xlink" xmlns:sketch="http://www.bohemiancoding.com/sketch/ns">
    <!-- Generator: Sketch 3.3.1 (12005) - http://www.bohemiancoding.com/sketch -->
    <title>discover</title>
    <desc>Created with Sketch.</desc>
    <defs></defs>
    <g id="Page-1" stroke="none" stroke-width="1" fill="none" fill-rule="evenodd" sketch:type="MSPage">
        <g id="discover" sketch:type="MSLayerGroup" transform="translate(375.000000, 235.500000) scale(1, -1) translate(-375.000000, -235.500000) " fill="#393939">
            <path d="M0,40.0047706 C0,17.9107459 17.9143492,0 39.9919369,0 L710.008063,0 C732.095,0 750,17.9064659 750,40.0047706 L750,430.995229 C750,453.089254 732.085651,471 710.008063,471 L39.9919369,471 C17.905,471 0,453.093534 0,430.995229 L0,40.0047706 Z M149.431047,8.51417561 L706.860139,8.51417561 C725.639496,8.51417561 740.863172,23.7337745 740.863172,42.5067024 L740.863172,221.925124 C740.863172,221.925124 531.988083,74.4967766 149.431047,8.51417561 Z M87.3624712,255.888125 C80.693022,250.22798 72.029423,247.757595 58.3125485,247.757595 L52.6168398,247.757595 L52.6168398,315.410562 L58.3125485,315.410562 C72.029423,315.410562 80.3512038,313.102235 87.3624712,307.137738 C94.7037845,300.991421 99.1200925,291.46957 99.1200925,281.667084 C99.1200925,271.848787 94.7037845,262.034442 87.3624712,255.888125 L87.3624712,255.888125 Z M62.5644643,332.746734 L31.4060321,332.746734 L31.4060321,230.437234 L62.4004925,230.437234 C78.8813435,230.437234 90.7835964,234.093403 101.230284,242.247649 C113.645054,251.907841 120.986367,266.465324 120.986367,281.520837 C120.986367,311.714867 96.98972,332.746734 62.5644643,332.746734 L62.5644643,332.746734 Z M130.753202,230.437234 L151.980533,230.437234 L151.980533,332.746734 L130.753202,332.746734 L130.753202,230.437234 Z M203.88506,293.733764 C191.147392,298.164646 187.405891,301.089582 187.405891,306.615338 C187.405891,313.058101 194.070715,317.955392 203.219923,317.955392 C209.579087,317.955392 214.806846,315.496865 220.33648,309.67071 L231.44368,323.342807 C222.315494,330.848824 211.397493,334.686813 199.465809,334.686813 C180.210891,334.686813 165.523219,322.113543 165.523219,305.370264 C165.523219,291.275237 172.362106,284.061714 192.298558,277.314599 C200.608567,274.559626 204.837779,272.72166 206.972776,271.488444 C211.21334,268.883671 213.336985,265.199833 213.336985,260.90334 C213.336985,252.614705 206.325718,246.472341 196.856134,246.472341 C186.731084,246.472341 178.576638,251.23129 173.687335,260.116769 L159.975506,247.701604 C169.755795,234.207375 181.499962,228.227067 197.652449,228.227067 C219.710865,228.227067 235.186863,242.01379 235.186863,261.820347 C235.186863,278.073502 228.030964,285.433272 203.88506,293.733764 L203.88506,293.733764 Z M241.882379,281.797108 C241.882379,251.725609 266.998239,228.40913 299.321712,228.40913 C308.462091,228.40913 316.286491,230.096897 325.939807,234.369675 L325.939807,257.860069 C317.451111,249.875785 309.933633,246.654404 300.309748,246.654404 C278.930343,246.654404 263.756642,261.227697 263.756642,281.943355 C263.756642,301.587854 279.41385,317.082107 299.321712,317.082107 C309.450126,317.082107 317.110554,313.68681 325.939807,305.57209 L325.939807,329.050626 C316.618639,333.493366 308.958211,335.335285 299.826241,335.335285 C267.66674,335.335285 241.882379,311.544492 241.882379,281.797108 L241.882379,281.797108 Z M494.246382,264.183619 L465.223368,332.903792 L442.036069,332.903792 L488.217264,227.969756 L499.640635,227.969756 L546.654303,332.903792 L523.643589,332.903792 L494.246382,264.183619 L494.246382,264.183619 Z M556.252962,230.437234 L616.451646,230.437234 L616.451646,247.757595 L577.46419,247.757595 L577.46419,275.37452 L615.01374,275.37452 L615.01374,292.702786 L577.46419,292.702786 L577.46419,315.410562 L616.451646,315.410562 L616.451646,332.746734 L556.252962,332.746734 L556.252962,230.437234 Z M657.915498,285.647367 L651.713999,285.647367 L651.713999,316.63192 L658.251851,316.63192 C671.470503,316.63192 678.655833,311.422373 678.655833,301.465735 C678.655833,291.181029 671.470503,285.647367 657.915498,285.647367 L657.915498,285.647367 Z M700.497722,302.540846 C700.497722,321.695221 686.467619,332.746734 661.985363,332.746734 L630.51118,332.746734 L630.51118,230.437234 L651.713999,230.437234 L651.713999,271.53653 L654.480499,271.53653 L683.860887,230.437234 L709.966044,230.437234 L675.708544,273.536554 C691.6979,276.595878 700.497722,286.876631 700.497722,302.540846 L700.497722,302.540846 Z M711.454404,323.123242 L711.067599,323.123242 L711.067599,325.471096 L711.47963,325.471096 C712.606411,325.471096 713.195028,325.091645 713.195028,324.316932 C713.195028,323.522456 712.598002,323.123242 711.454404,323.123242 Z M712.282672,316.206165 C708.629043,316.206165 705.63971,319.063906 705.63971,322.633118 C705.63971,326.214188 708.591203,329.071929 712.282672,329.071929 C715.919483,329.071929 718.883589,326.146993 718.883589,322.633118 C718.883589,319.095527 715.919483,316.206165 712.282672,316.206165 Z M715.47802,324.348553 C715.47802,326.143041 714.162041,327.123289 711.858027,327.123289 L708.784606,327.123289 L708.784606,318.131089 L711.067599,318.131089 L711.067599,321.617296 L713.745805,318.131089 L716.533326,318.131089 L713.388431,321.838642 C714.733841,322.178567 715.47802,323.099527 715.47802,324.348553 L715.47802,324.348553 Z M712.316307,330.483012 C707.670439,330.483012 703.987379,326.996805 703.987379,322.644976 C703.987379,318.293146 707.712483,314.802987 712.316307,314.802987 C716.840248,314.802987 720.548534,318.32872 720.548534,322.644976 C720.548534,326.937516 716.840248,330.483012 712.316307,330.483012 Z M332.85185,281.608185 C332.85185,281.608185 332.85185,281.608185 332.85185,281.643759 C332.85185,311.703399 358.772013,336.0357 390.74652,336.0357 C422.721028,336.0357 448.641191,311.703399 448.641191,281.643759 L448.641191,281.608185 C448.641191,251.548544 422.721028,227.18067 390.74652,227.18067 C358.772013,227.18067 332.85185,251.548544 332.85185,281.608185 Z" id="Rectangle-1" sketch:type="MSShapeGroup"></path>
        </g>
    </g>
</svg>

<?xml version="1.0" encoding="UTF-8" standalone="no"?>
<svg
   xmlns:sketch="http://www.bohemiancoding.com/sketch/ns"
   xmlns:dc="http://purl.org/dc/elements/1.1/"
   xmlns:cc="http://creativecommons.org/ns#"
   xmlns:rdf="http://www.w3.org/1999/02/22-rdf-syntax-ns#"
   xmlns:svg="http://www.w3.org/2000/svg"
   xmlns="http://www.w3.org/2000/svg"
   xmlns:sodipodi="http://sodipodi.sourceforge.net/DTD/sodipodi-0.dtd"
   xmlns:inkscape="http://www.inkscape.org/namespaces/inkscape"
   width="750px"
   height="471px"
   viewBox="0 0 750 471"
   version="1.1"
   id="svg2"
   inkscape:version="0.91 r13725"
   sodipodi:docname="discover.svg">
  <metadata
     id="metadata15">
    <rdf:RDF>
      <cc:Work
         rdf:about="">
        <dc:format>image/svg+xml</dc:format>
        <dc:type
           rdf:resource="http://purl.org/dc/dcmitype/StillImage" />
      </cc:Work>
    </rdf:RDF>
  </metadata>
  <sodipodi:namedview
     pagecolor="#ffffff"
     bordercolor="#666666"
     borderopacity="1"
     objecttolerance="10"
     gridtolerance="10"
     guidetolerance="10"
     inkscape:pageopacity="0"
     inkscape:pageshadow="2"
     inkscape:window-width="1440"
     inkscape:window-height="851"
     id="namedview13"
     showgrid="false"
     inkscape:zoom="0.90226825"
     inkscape:cx="425.1153"
     inkscape:cy="215.24562"
     inkscape:window-x="0"
     inkscape:window-y="300"
     inkscape:window-maximized="1"
     inkscape:current-layer="Page-1" />
  <!-- Generator: Sketch 3.3.1 (12005) - http://www.bohemiancoding.com/sketch -->
  <title
     id="title4">discover</title>
  <desc
     id="desc6">Created with Sketch.</desc>
  <defs
     id="defs8" />
  <g
     id="Page-1"
     stroke="none"
     stroke-width="1"
     fill="none"
     fill-rule="evenodd"
     sketch:type="MSPage">
    <g
       id="discover"
       sketch:type="MSLayerGroup"
       transform="translate(375.000000, 235.500000) scale(1, -1) translate(-375.000000, -235.500000) "
       fill="#393939">
      <path
         d="M 0,40.004771 C 0,17.910746 17.914349,0 39.991937,0 L 710.00806,0 C 732.095,0 750,17.906466 750,40.004771 l 0,390.990459 C 750,453.08925 732.08565,471 710.00806,471 L 39.991937,471 C 17.905,471 0,453.09353 0,430.99523 Z m 149.43105,-31.4905954 557.42909,0 c 18.77936,0 34.00303,15.2195984 34.00303,33.9925264 l 0,179.418418 c 0,0 -208.87509,-147.428343 -591.43212,-213.4109444 z M 87.362471,255.88812 c -6.669449,-5.66014 -15.333048,-8.13053 -29.049923,-8.13053 l -5.695708,0 0,67.65297 5.695708,0 c 13.716875,0 22.038656,-2.30833 29.049923,-8.27282 7.341313,-6.14632 11.757621,-15.66817 11.757621,-25.47066 0,-9.81829 -4.416308,-19.63264 -11.757621,-25.77896 z m -24.798007,76.85861 -31.158432,0 0,-102.3095 30.99446,0 c 16.480851,0 28.383104,3.65617 38.829788,11.81042 12.41477,9.66019 19.75609,24.21767 19.75609,39.27319 0,30.19403 -23.99665,51.22589 -58.421906,51.22589 z m 68.188736,-102.3095 21.22733,0 0,102.3095 -21.22733,0 z m 73.13186,63.29653 c -12.73767,4.43089 -16.47917,7.35582 -16.47917,12.88158 0,6.44276 6.66482,11.34005 15.81403,11.34005 6.35917,0 11.58693,-2.45852 17.11656,-8.28468 l 11.1072,13.6721 c -9.12819,7.50601 -20.04619,11.344 -31.97787,11.344 -19.25492,0 -33.94259,-12.57327 -33.94259,-29.31655 0,-14.09502 6.83889,-21.30855 26.77534,-28.05566 8.31001,-2.75497 12.53922,-4.59294 14.67422,-5.82616 4.24056,-2.60477 6.3642,-6.28861 6.3642,-10.5851 0,-8.28864 -7.01126,-14.431 -16.48085,-14.431 -10.12505,0 -18.27949,4.75895 -23.1688,13.64443 L 159.97551,247.7016 c 9.78028,-13.49422 21.52445,-19.47453 37.67694,-19.47453 22.05841,0 37.53441,13.78672 37.53441,33.59328 0,16.25315 -7.1559,23.61292 -31.3018,31.91341 z m 37.99732,-11.93665 c 0,-30.0715 25.11586,-53.38798 57.43933,-53.38798 9.14038,0 16.96478,1.68777 26.6181,5.96054 l 0,23.4904 c -8.4887,-7.98429 -16.00618,-11.20567 -25.63006,-11.20567 -21.37941,0 -36.55311,14.5733 -36.55311,35.28895 0,19.6445 15.65721,35.13876 35.56507,35.13876 10.12842,0 17.78884,-3.3953 26.6181,-11.51002 l 0,23.47854 c -9.32117,4.44274 -16.9816,6.28465 -26.11357,6.28465 -32.1595,0 -57.94386,-23.79079 -57.94386,-53.53817 z m 252.364,-17.61349 -29.02301,68.72017 -23.1873,0 46.18119,-104.93403 11.42337,0 47.01367,104.93403 -23.01071,0 -29.39721,-68.72017 z m 62.00658,-33.74639 60.19869,0 0,17.32036 -38.98746,0 0,27.61693 37.54955,0 0,17.32827 -37.54955,0 0,22.70777 38.98746,0 0,17.33617 -60.19869,0 z m 101.66254,55.21014 -6.2015,0 0,30.98455 6.53785,0 c 13.21865,0 20.40398,-5.20955 20.40398,-15.16619 0,-10.2847 -7.18533,-15.81836 -20.74033,-15.81836 z m 42.58222,16.89348 c 0,19.15437 -14.0301,30.20588 -38.51236,30.20588 l -31.47418,0 0,-102.3095 21.20282,0 0,41.0993 2.7665,0 29.38039,-41.0993 26.10515,0 -34.2575,43.09932 c 15.98936,3.05933 24.78918,13.34008 24.78918,29.0043 z m -367.64587,-20.93267 0,0.0356 c 0,30.05964 25.92016,54.39194 57.89467,54.39194 31.97451,0 57.89467,-24.3323 57.89467,-54.39194 l 0,-0.0356 c 0,-30.05964 -25.92016,-54.42751 -57.89467,-54.42751 -31.97451,0 -57.89467,24.36787 -57.89467,54.42751 z"
         id="Rectangle-1"
         sketch:type="MSShapeGroup"
         inkscape:connector-curvature="0"
         sodipodi:nodetypes="ssssssssscsscccsccscscccccscsccccccccssccssccssccsscccsccsssccscccccccccccccccccccccccccccsscccsccccccccccsssssss" />
    </g>
  </g>
</svg>
